svgs/materials/action/shopping_cart_checkout.svg

<svg xmlns="http://www.w3.org/2000/svg" enable-background="new 0 0 24 24" height="24" viewBox="0 0 24 24" width="24"><g><rect fill="none" height="24" width="24"/></g><g><path d="M7,18c-1.1,0-1.99,0.9-1.99,2S5.9,22,7,22s2-0.9,2-2S8.1,18,7,18z M17,18c-1.1,0-1.99,0.9-1.99,2s0.89,2,1.99,2s2-0.9,2-2 S18.1,18,17,18z M8.1,13h7.45c0.75,0,1.41-0.41,1.75-1.03L21,4.96L19.25,4l-3.7,7H8.53L4.27,2H1v2h2l3.6,7.59l-1.35,2.44 C4.52,15.37,5.48,17,7,17h12v-2H7L8.1,13z M12,2l4,4l-4,4l-1.41-1.41L12.17,7L8,7l0-2l4.17,0l-1.59-1.59L12,2z"/></g></svg>

<?xml version="1.0" encoding="UTF-8" standalone="no"?>
<svg
   enable-background="new 0 0 24 24"
   height="24"
   viewBox="0 0 24 24"
   width="24"
   version="1.1"
   id="svg10"
   sodipodi:docname="shopping_cart_checkout.svg"
   inkscape:version="1.2 (dc2aeda, 2022-05-15)"
   xmlns:inkscape="http://www.inkscape.org/namespaces/inkscape"
   xmlns:sodipodi="http://sodipodi.sourceforge.net/DTD/sodipodi-0.dtd"
   xmlns="http://www.w3.org/2000/svg"
   xmlns:svg="http://www.w3.org/2000/svg">
  <defs
     id="defs14" />
  <sodipodi:namedview
     id="namedview12"
     pagecolor="#ffffff"
     bordercolor="#000000"
     borderopacity="0.25"
     inkscape:showpageshadow="2"
     inkscape:pageopacity="0.0"
     inkscape:pagecheckerboard="0"
     inkscape:deskcolor="#d1d1d1"
     showgrid="false"
     inkscape:zoom="9.8333333"
     inkscape:cx="11.949153"
     inkscape:cy="12"
     inkscape:window-width="1309"
     inkscape:window-height="456"
     inkscape:window-x="0"
     inkscape:window-y="25"
     inkscape:window-maximized="0"
     inkscape:current-layer="svg10" />
  <path
     id="rect2"
     style="fill:none"
     d="M 0,0 H 24 V 24 H 0 Z" />
  <path
     d="m 7,18 c -1.1,0 -1.99,0.9 -1.99,2 0,1.1 0.89,2 1.99,2 1.1,0 2,-0.9 2,-2 0,-1.1 -0.9,-2 -2,-2 z m 10,0 c -1.1,0 -1.99,0.9 -1.99,2 0,1.1 0.89,2 1.99,2 1.1,0 2,-0.9 2,-2 0,-1.1 -0.9,-2 -2,-2 z M 8.1,13 h 7.45 c 0.75,0 1.41,-0.41 1.75,-1.03 L 21,4.96 19.25,4 15.55,11 H 8.53 L 4.27,2 H 1 v 2 h 2 l 3.6,7.59 -1.35,2.44 C 4.52,15.37 5.48,17 7,17 H 19 V 15 H 7 Z M 12,2 16,6 12,10 10.59,8.59 12.17,7 H 8 V 5 h 4.17 L 10.58,3.41 Z"
     id="path6" />
</svg>
